!!!OTL: Mi querido Potosi
**kern
*I"Guitarra acústica
*I'Guit. ac.
!!pagebreak:original
*clefG2
*Trd0c0
*k[f#]
*G:
*M6/8
!LO:TX:t=[quarter]=120
8gL
8aJ
=1!|:
8b
(4ee
8eeL)
8b
8gJ
=2
4a
4f#
8f#L
8gJ
=3
8aL
8a
8bJ
8a
(4b
=4
4.g)
8r
8aL
8bJ
!!linebreak:original
=5
8.ccL
16cck
8eeJ
8dd#X
4ee
=6
4b
4ee
8ddL
8cc#XJ
=7
8.bL
16ak
8g#XJ
8b
(4a
=8
4.g)
8r
8aL
8bJ
=9
8.ccL
16cck
8eeJ
8dd#X
4ee
!!linebreak:original
=10
4b
4ee
8ddL
8cc#XJ
=11
8.bL
16ak
8g#XJ
8b
(4a
=12
4.g)
!LO:TX:a:B:t=Fine
8r
8gL
8aJ
=13:|!
4.g
8r
8gL
8aJ
!!linebreak:original
=14
4.b
8bL
8a
8g#XJ
=15
4a
4f#
8f#L
8gJ
=16
8aL
8a
8bJ
8a
4b
=17
4.g
8r
8aL
8ccJ
!!linebreak:original
=18
8ccL
8cc
8eeJ
8dd#X
4ee
=19
4b
4ee
8ddL
8cc#XJ
=20
8.bL
16ak
8g#XJ
8b
4a
=21
4.g
8r
8aL
8ccJ
!!linebreak:original
=22
8ccL
8cc
8eeJ
8dd#X
4ee
=23
4b
4ee
8ddL
8cc#XJ
=24
8.bL
16ak
8g#XJ
8b
4a
=25
4.g
8r
8aL
!LO:TX:a:B:t=D.S. al Fine
8ccJ
==
*-